X:1607
T:Struan Robertson's Reel
P:Struan Robertson's Reel
C:Traditional?
R:Reel (8x40) ABABB
B:RSCDS 16-7
Z:Anselm Lingnau <anselm@strathspey.org>
M:2/2
L:1/8
K:ADor
e|"G"dega bg"Am"ea|"G"gedg BGdB|dega b/a/g "C"a/g/e|"Dm"fd"Em"gB "Am"A2 Ae|
  "G"dega bg"Am"ea|"G"gedg BGdB|dega b/a/g "C"a/g/e|"Dm"fd"Em"gB "Am"A2 A||
d|"Am"ceAe cAec|"G"Bgdg BGdG|"Am"ceAe cAae|"Dm"fd"Em"gB "Am"A2 Ad|
  "Am"ceAe cAec|"G"Bgdg BGdG|"Am"ceAe cAae|"Dm"fd"Em"gB "Am"A2 A|]
